X:69
T:Speed The Plough. JMT.069
M:C
L:1/8
Q:1/2=90
S:J.Moore,Tyneside,1841.(48)
R:.Reel
O:England
A:Northumbria
W:C.G.P
K:A
E|(AB)(Ac) efec|eaec efec|dedB cdcA|FBBA GBBc|!
(AB)(Ac) efec|eaec efec|decd BcAE|FAGBc2A”NB”:|!
|:e|aaaA aAeA|aAgA fAeA|dedB cdcA|FBBA GBBd|!
(cBA)e aece|fdBf ecAc|decd BcAE|FAGBc2A:|
W:MS has an extra A quaver at the end of each strain.

